src/svg/uf240-battery,battery-4,battery-full.svg

<!-- Generated by IcoMoon.io -->
<svg version="1.1" xmlns="http://www.w3.org/2000/svg" width="41" height="32" viewBox="0 0 41 32">
<path d="M34.286 9.143v13.714h-29.714v-13.714h29.714zM36.571 19.429h2.286v-6.857h-2.286v-5.143c0-0.321-0.25-0.571-0.571-0.571h-33.143c-0.321 0-0.571 0.25-0.571 0.571v17.143c0 0.321 0.25 0.571 0.571 0.571h33.143c0.321 0 0.571-0.25 0.571-0.571v-5.143zM41.143 12.571v6.857c0 1.268-1.018 2.286-2.286 2.286v2.857c0 1.571-1.286 2.857-2.857 2.857h-33.143c-1.571 0-2.857-1.286-2.857-2.857v-17.143c0-1.571 1.286-2.857 2.857-2.857h33.143c1.571 0 2.857 1.286 2.857 2.857v2.857c1.268 0 2.286 1.018 2.286 2.286z"></path>
</svg>

<svg xmlns="http://www.w3.org/2000/svg" width="41" height="32"><path d="M34.286 9.143v13.714H4.572V9.143h29.714zm2.285 10.286h2.286v-6.857h-2.286V7.429A.564.564 0 0 0 36 6.858H2.857a.564.564 0 0 0-.571.571v17.143c0 .321.25.571.571.571H36c.321 0 .571-.25.571-.571v-5.143zm4.572-6.858v6.857a2.279 2.279 0 0 1-2.286 2.286v2.857A2.866 2.866 0 0 1 36 27.428H2.857A2.866 2.866 0 0 1 0 24.571V7.428a2.866 2.866 0 0 1 2.857-2.857H36a2.866 2.866 0 0 1 2.857 2.857v2.857a2.279 2.279 0 0 1 2.286 2.286z"/></svg>
